!!!!SEGMENT: pl-wtm--r-1588--005_stefani-jozef--antiphonae-ad-vesperas-antiphona.krn
!!!id: 18xx:2367
!!!COM: Stefani, Józef
!!!COM-rism: pe30024097
!!!CDT: 1800/04/16-1876/03/19
!!!CNT: Polish
!!!OTL: Antiphonae ad Vesperas – Antiphona
!!!PDT:
!!!SMS-siglum: PL-Wtm
!!!SMS-shelfmark: R 1588
!!!NIFC-rismID: 1001115605
!!!URL-scan: http://repozytorium.nifc.pl/skany/pl-wtm-nut--r1588
!!!ONB-nifc: UWAGA: części: 5 Antyfon (001-005), Hymnus (006) i Magnificat (007)
!!!SMS-variant:
!!!SMS-altvar:
!!!OMD: Antiphona V Adagio.
**kern	**text	**text	**dynam	**kern	**text	**dynam	**kern	**text	**text	**dynam
*part3	*part3	*part3	*part3	*part2	*part2	*part2	*part1	*part1	*part1	*part1
*staff3	*staff3	*staff3	*	*staff2	*staff2	*	*staff1	*staff1	*staff1	*
*I"Basſo	*	*	*	*I"Tenore 2º.	*	*	*I"Tenore 1º.	*	*	*
*clefF4	*	*	*	*clefC4	*	*	*clefC4	*	*	*
*k[f#c#]	*	*	*	*k[c#f#]	*	*	*k[c#f#]	*	*	*
*M3/4	*	*	*	*M3/4	*	*	*M3/4	*	*	*
*all\right	*	*	*	*all\right	*	*	*all\right	*	*	*
!LO:TX:a:t=dolce	!	!	!	!LO:TX:a:t=dolce	!	!	!LO:TX:a:t=dolce	!	!	!
4A\	Spe-	.	.	4A\	.	.	4A\	Spe-	.	.
=1	=1	=1	=1	=1	=1	=1	=1	=1	=1	=1
*	*	*	*	*2\right	*	*	*	*	*	*
(4D\	-cio-	.	.	2A\	.	.	(4f#\	-cio-	.	.
4G\)	.	.	.	.	.	.	4c#\)	.	.	.
4F#\	-sa	.	.	4A\	.	.	4d'\	-sa	.	.
=2	=2	=2	=2	=2	=2	=2	=2	=2	=2	=2
8.G\	fa-	.	.	8.G/	.	.	8.c#\	fa-	.	.
16G\	-cta	.	.	16G/	.	.	16B\	-cta	.	.
4G\	es,	.	.	4G/	.	.	4B\	es,	.	.
4F#^\	et	.	.	4A/	.	.	4d#X^\	et	.	.
=3	=3	=3	=3	=3	=3	=3	=3	=3	=3	=3
*	*	*	*	*^	*	*	*	*	*	*
(4.E\	su-	.	.	2ryy	(4.G/	.	.	(4.e\	su-	.	.
8A\)	.	.	.	.	8A/)	.	.	8c#\)	.	.	.
(8F#\L	-a-	.	.	8A\L	4A/	.	.	(8d\L	-a-	.	.
8D\J)	.	.	.	8d\J	.	.	.	8f#\J)	.	.	.
*	*	*	*	*v	*v	*	*	*	*	*	*
=4	=4	=4	=4	=4	=4	=4	=4	=4	=4	=4
*2\right	*	*	*	*	*	*	*	*	*	*
2A\	-vis	.	.	(4d\	.	.	(4f#\	-vis	.	.
.	.	.	.	4c#\)	.	.	4e\)	.	.	.
4r	.	.	.	4r	.	.	4r	.	.	.
!!LO:LB:g=original
=5	=5	=5	=5	=5	=5	=5	=5	=5	=5	=5
8.E\	in	.	.	8.B\	.	.	8.g\	in	.	.
16E\	de-	.	.	16B\	.	.	16g\	de-	.	.
4G\	-li-	.	.	4B\	.	.	4d\	-li-	.	.
8G\	-ci-	.	.	8B\	.	.	8e\	-ci-	.	.
8G\	-is	.	.	8B\	.	.	8e\	-is	.	.
=6	=6	=6	=6	=6	=6	=6	=6	=6	=6	=6
4F#\	tu-	.	.	4A#X\	.	.	4f#\	tu-	.	>
8F#\	-is,	.	.	8A#\	.	.	8f#\	-is,	.	]
!	!	!	!LO:DY:a	!	!	!	!	!	!	!
8r	.	.	p	8r	.	.	8r	.	.	p
(4A#X\	San-	.	.	(4c#\	.	.	(8f#\L	San-	.	.
.	.	.	.	.	.	.	8e\J	.	.	.
=7	=7	=7	=7	=7	=7	=7	=7	=7	=7	=7
*	*	*	*	*	*	*	*2\right	*	*	*
2B\)	.	.	.	2B\)	.	.	2d\)	.	.	.
4G#X\	-cta	.	.	4B\	.	.	4e\	-cta	.	.
=8	=8	=8	=8	=8	=8	=8	=8	=8	=8	=8
2A\	[[san-	De-	.	2A\	.	.	2c#\	[[san-	De-	.
4F#\	-cta]]	-i-	.	4A\	.	.	4d\	-cta]]	-i	.
=9	=9	=9	=9	=9	=9	=9	=9	=9	=9	=9
!	!	!	!LO:DY:a:rj	!	!	!	!	!	!	!LO:DY:rj
(8Gn\L	Ge-	.	f	8G\L	.	.	(8B\L	Ge-	.	f
8E\J	.	.	.	8e\J	.	.	8g\J	.	.	.
4A\)	.	.	.	4d\	.	.	4f#\)	.	.	.
4AA/	-ni-	.	.	4c#\	.	.	4e\	-ni-	.	.
=10	=10	=10	=10	=10	=10	=10	=10	=10	=10	=10
4.D\	-trix	.	.	4.d\	.	.	4.d\	-trix.	.	.
8r	.	.	.	8r	.	.	8r	.	.	.
!	!	!	!	!	!	!LO:DY:a	!	!	!	!
4r	.	.	.	8.A\	Spe-	p	4r	.	.	.
!LO:TX:b:t=V&colon; S&colon;	!	!	!	!	!	!	!	!	!	!
.	.	.	.	16A\	-ci-	.	.	.	.	.
!!LO:PB:g=original
=11	=11	=11	=11	=11	=11	=11	=11	=11	=11	=11
4r	.	.	.	2.A\	o-	.	4r	.	.	.
4r	.	.	.	.	.	.	4r	.	.	.
!	!	!	!	!	!	!	!	!	!	!LO:DY:a
8.G\	Spe-	.	.	.	.	.	8.c#\	Spe-	.	p
16G\	-ci-	.	.	.	.	.	16e\	-ci-	.	.
=12	=12	=12	=12	=12	=12	=12	=12	=12	=12	=12
4F#\	-o-	.	.	2A\	-sa	.	4d\	-o-	.	.
4F#\	-sa	.	.	.	.	.	4A\	-sa	.	.
4r	.	.	.	8.A\	fa-	.	4r	.	.	.
.	.	.	.	16A\	-cta	.	.	.	.	.
=13	=13	=13	=13	=13	=13	=13	=13	=13	=13	=13
4r	.	.	.	[2.A\	es	.	4r	.	.	.
4r	.	.	.	.	.	.	4r	.	.	.
8.G\	fa-	.	.	.	.	.	8.c#\	fa-	.	.
16G\	-cta	.	.	.	.	.	16e\	-cta	.	.
=14	=14	=14	=14	=14	=14	=14	=14	=14	=14	=14
4.F#\	es,	.	.	4.A\]	.	.	4.d\	es,	.	.
(8F#L\	San-	.	.	(8AL\	San-	.	(8dL\	San-	.	<
8E\J)	.	.	.	8c#\J)	.	.	8e\J)	.	.	.
8D\	-cta	.	.	8d\	-cta	.	8f#\	-cta	.	[
!!LO:LB:g=original
=15	=15	=15	=15	=15	=15	=15	=15	=15	=15	=15
!	!	!	!	!	!	!	!	!	!	!LO:DY:a:rj
2C#/	De-	.	.	2e\	.	.	2g\	De-	.	f
4D/	-i	.	.	4d\	.	.	4f#\	-i	.	.
=16	=16	=16	=16	=16	=16	=16	=16	=16	=16	=16
!	!	!	!	!	!	!	!LO:TUP:a:problem:klamra łukowa	!	!	!
(4G\	Ge-	.	.	(4B\	.	.	(12B\L	Ge-	.	.
.	.	.	.	.	.	.	12a\	.	.	.
.	.	.	.	.	.	.	12g\J	.	.	.
4A\)	.	.	.	4A\)	.	.	4f#\)	.	.	.
4AA/	-ni-	.	.	4G\	.	.	4e\	-ni-	.	.
=17	=17	=17	=17	=17	=17	=17	=17	=17	=17	=17
2BB;/	-trix.	.	.	2F#;/	.	.	2d^;\	-trix.	.	.
!	!	!	!LO:DY:a:rj	!	!	!	!LO:TUP:a:problem:klamra łukowa	!	!	!LO:DY:a:rj
(4GG/	Ge-	.	p	(4G/	.	.	(12B\L	Ge-	.	p
.	.	.	.	.	.	.	12d#X\	.	.	.
.	.	.	.	.	.	.	12e\J	.	.	.
=18	=18	=18	=18	=18	=18	=18	=18	=18	=18	=18
2AA/)	.	.	.	2F#/)	.	.	4A\	.	.	.
.	.	.	.	.	.	.	4d\	.	.	.
4AA/	-ni-	.	.	4G/	.	.	4c#)\	-ni-	.	.
=19	=19	=19	=19	=19	=19	=19	=19	=19	=19	=19
2D\	-trix.	.	.	2F#/	.	.	2d\	-trix	.	.
[4GG/	Ge	.	.	[4G/	.	.	[4B\	Ge-	.	.
!!LO:LB:g=original
=20	=20	=20	=20	=20	=20	=20	=20	=20	=20	=20
2GG/]	.	.	.	2G/]	.	.	2B\]	.	.	<
4BB/	.	-ni-	.	4G/	.	.	4d\	-ni-	.	[[
=21	=21	=21	=21	=21	=21	=21	=21	=21	=21	=21
!	!	!	!	!	!	!	!	!	!	!LO:DY:a:rj
2.D;\	.	-trix.	.	2.F#;/	.	.	2.A;\	-trix.	.	f
==	==	==	==	==	==	==	==	==	==	==
*-	*-	*-	*-	*-	*-	*-	*-	*-	*-	*-
!!!system-decoration: {s1,s2,s3}
!!!ENC: Marta Lawrence
!!!END: 2021-06-13
!!!ENC: Andrzej Gręziak
!!!END: 2021-06-04
